img/icon-barf/veg.svg

<svg width="20" height="20" viewBox="0 0 20 20" fill="none" xmlns="http://www.w3.org/2000/svg">
<path d="M20 11.2757C20 9.87654 19.318 8.5244 18.1775 7.68959C17.9424 7.51323 17.6602 7.41917 17.3663 7.41917C17.0018 7.41917 16.6608 7.56026 16.4139 7.80717C16.3668 7.7719 16.3198 7.72487 16.2728 7.68959C16.0964 7.5485 15.8848 7.4662 15.6614 7.44268L15.8025 5.87889C15.8025 5.84362 15.8025 5.80835 15.8025 5.76132C15.8025 5.06761 15.2381 4.51499 14.5561 4.51499H14.4738C13.7801 4.51499 13.2275 5.07937 13.2275 5.76132C13.2275 5.79659 13.2275 5.83186 13.2275 5.87889L13.3686 7.45444C13.1687 7.48971 12.9688 7.57202 12.8042 7.70135C12.7454 7.74838 12.6984 7.79541 12.6396 7.84245C12.6161 7.80717 12.5808 7.78366 12.5456 7.76014C12.5691 7.64256 12.5808 7.52499 12.5808 7.41917C12.5808 7.00764 12.4515 6.61964 12.2163 6.29042C12.4515 5.9612 12.5808 5.57319 12.5808 5.16167C12.5808 4.05644 11.652 3.16285 10.535 3.23339C10.3233 2.6455 9.84127 2.18695 9.25338 2.02234C8.85362 1.52851 8.26573 1.25808 7.63081 1.29336C7.36038 0.529101 6.64315 0 5.80835 0C5.10288 0 4.46796 0.376249 4.12698 0.964139C3.28042 0.999412 2.53968 1.59906 2.32804 2.4221C1.32863 2.79835 0.646678 3.76249 0.646678 4.83245C0.646678 5.69077 1.06996 6.4903 1.77543 6.96061C1.66961 7.20753 1.61082 7.47795 1.61082 7.73663C1.61082 8.31276 1.86949 8.85362 2.31628 9.21811C2.28101 9.37096 2.2575 9.52381 2.2575 9.67666C2.2575 10.6643 2.99824 11.4874 3.96238 11.5932L4.6796 13.592C4.31511 13.8624 3.99765 14.2034 3.76249 14.5797L2.06937 14.2034C2.01058 14.1917 1.94004 14.1799 1.86949 14.1799C1.37566 14.1799 0.964139 14.5797 0.964139 15.0852V15.2146C0.964139 15.3086 0.975897 15.3909 1.01117 15.4733H0.964139C0.435038 15.485 0 15.92 0 16.4491C0 16.9782 0.435038 17.4133 0.964139 17.4133H1.01117C0.987654 17.4956 0.964139 17.5779 0.964139 17.672V17.8013C0.964139 18.2951 1.3639 18.7066 1.86949 18.7066C1.94004 18.7066 1.99882 18.6949 2.06937 18.6831L3.76249 18.3069C4.38566 19.318 5.50265 20 6.77249 20H6.84303C7.0194 20 7.20753 19.9882 7.38389 19.953L18.448 18.2481C19.3416 18.107 20 17.3545 20 16.4374C20 15.7084 19.5767 15.0852 18.9536 14.7913C19.6238 13.9918 20 12.9806 20 11.9342V11.2757ZM15.8848 8.20694C16.8489 8.94768 17.425 10.1117 17.425 11.3463V12.5338C17.425 13.1922 17.2604 13.8389 16.9547 14.4151L14.368 14.0153C14.2622 13.545 14.2034 13.0747 14.2034 12.5926V11.2757C14.2034 10.9465 14.2387 10.629 14.2857 10.2998C14.368 10.3116 14.4386 10.3116 14.5209 10.3116C15.438 10.3116 16.1317 9.90006 16.1317 9.34744C16.1317 9.04174 15.92 8.77131 15.5556 8.59494L15.6026 8.0776C15.6966 8.10112 15.7907 8.13639 15.8848 8.20694ZM14.4738 5.16167H14.5561C14.8854 5.16167 15.1558 5.4321 15.1558 5.76132C15.1558 5.78483 15.1558 5.79659 15.1558 5.82011L14.8618 9.04174L15.1088 9.12405C15.3909 9.21811 15.485 9.33568 15.485 9.3592C15.485 9.44151 15.144 9.67666 14.5209 9.67666C13.8977 9.67666 13.5567 9.42975 13.5567 9.3592C13.5567 9.33568 13.6508 9.21811 13.933 9.12405L14.1799 9.04174L13.8742 5.82011C13.8742 5.79659 13.8742 5.78483 13.8742 5.76132C13.8742 5.4321 14.1446 5.16167 14.4738 5.16167ZM13.4274 8.08936L13.4744 8.59494C13.1099 8.77131 12.8983 9.04174 12.8983 9.34744C12.8983 9.70018 13.1922 9.99412 13.639 10.1705C13.5802 10.535 13.545 10.9112 13.545 11.2757V12.5808C13.545 13.0276 13.592 13.4627 13.6743 13.8977L11.7695 13.6038C11.6637 13.251 11.6049 12.8865 11.6049 12.5103V11.3463C11.6049 10.1235 12.1928 8.94768 13.1805 8.20694C13.2628 8.14815 13.3451 8.11287 13.4274 8.08936ZM9.94709 13.3333C9.77072 12.8865 9.67666 12.428 9.67666 11.9459V11.2757C9.67666 10.0764 10.2646 8.92416 11.2404 8.20694C11.358 8.11287 11.5109 8.06584 11.6637 8.06584C11.8636 8.06584 12.04 8.14815 12.1693 8.27748C11.4051 9.11229 10.97 10.2058 10.97 11.3463V12.5338C10.97 12.863 11.0053 13.1922 11.0758 13.5215L9.94709 13.3333ZM9.9706 3.64491L10.0294 3.97413L10.3586 3.90359C10.4644 3.88007 10.5585 3.86831 10.6408 3.86831C11.358 3.86831 11.9342 4.44444 11.9342 5.16167C11.9342 5.50265 11.8048 5.82011 11.5697 6.06702L11.3463 6.29042L11.5697 6.51382C11.8048 6.76073 11.9342 7.07819 11.9342 7.41917C11.9342 7.43092 11.9342 7.44268 11.9342 7.44268C11.8401 7.43092 11.7578 7.41917 11.6637 7.41917C11.3698 7.41917 11.0876 7.51323 10.8524 7.68959C10.2646 8.11287 9.806 8.68901 9.48854 9.32393C9.37096 8.94768 9.24162 8.58319 9.11229 8.23045C9.40623 6.65491 10.5115 5.74956 10.5232 5.7378L10.3233 5.47913L10.1235 5.23222C10.0764 5.26749 9.20635 5.98471 8.71252 7.26631C8.04233 5.72604 7.40741 4.72663 7.37213 4.66784L6.81952 5.00882C6.83128 5.02058 7.3251 5.79659 7.88948 7.03116C6.9371 6.66667 5.83186 6.77249 5.77307 6.77249L5.83186 7.41917C6.31393 7.37213 7.68959 7.39565 8.33627 8.05409C8.55967 8.6067 8.78307 9.21811 8.98295 9.87654C8.00705 9.3592 6.83128 9.3592 6.77249 9.3592V9.99412C6.78425 9.99412 8.21869 10.0059 9.07701 10.6761C9.0535 10.876 9.02998 11.0758 9.02998 11.2757V11.9577C9.02998 12.3927 9.10053 12.816 9.21811 13.2275L7.38389 12.9453C7.28983 12.9336 7.19577 12.9218 7.10171 12.9101C6.38448 12.9101 5.80835 12.3222 5.80835 11.6049C5.80835 11.4521 5.84362 11.2992 5.90241 11.1464L5.99647 10.8995L5.76132 10.7701C5.38507 10.535 5.16167 10.1235 5.16167 9.67666C5.16167 9.41799 5.23222 9.17108 5.37331 8.95944L5.57319 8.65373L5.25573 8.50088C4.5973 8.17166 4.19753 7.51323 4.19753 6.77249C4.19753 5.91417 4.77366 5.14991 5.59671 4.91476L5.79659 4.85597L5.83186 4.64433C5.91417 4.02116 6.46678 3.55085 7.10171 3.55085C7.11346 3.55085 7.12522 3.55085 7.13698 3.55085C7.16049 3.55085 7.18401 3.56261 7.20753 3.56261L7.44268 3.58613L7.52499 3.36273C7.72487 2.88066 8.19518 2.57496 8.71252 2.57496C9.33568 2.57496 9.86479 3.03351 9.9706 3.64491ZM4.42093 10.97H4.19753C3.48031 10.97 2.90417 10.3939 2.90417 9.67666C2.90417 9.52381 2.93945 9.37096 2.99824 9.21811L3.0923 8.97119L2.85714 8.8301C2.48089 8.59494 2.2575 8.18342 2.2575 7.73663C2.2575 7.47795 2.32804 7.23104 2.46914 7.0194L2.66902 6.7137L2.35156 6.56085C1.69312 6.23163 1.29336 5.57319 1.29336 4.83245C1.29336 3.97413 1.86949 3.20988 2.69253 2.97472L2.89242 2.91593L2.92769 2.70429C3.02175 2.08113 3.56261 1.59906 4.19753 1.59906C4.20929 1.59906 4.22105 1.59906 4.2328 1.59906C4.25632 1.59906 4.27984 1.59906 4.30335 1.61082L4.53851 1.63433L4.63257 1.42269C4.82069 0.952381 5.29101 0.646678 5.80835 0.646678C6.43151 0.646678 6.96061 1.09347 7.07819 1.71664L7.13698 2.04586L7.4662 1.97531C7.57202 1.95179 7.65432 1.94004 7.74838 1.94004C7.90124 1.94004 8.04233 1.97531 8.17166 2.02234C7.68959 2.15168 7.27807 2.46914 7.03116 2.90417C6.17284 2.92769 5.44386 3.53909 5.23222 4.36214C4.2328 4.72663 3.55085 5.69077 3.55085 6.77249C3.55085 7.63081 3.97413 8.43034 4.6796 8.90065C4.57378 9.14756 4.51499 9.40623 4.51499 9.67666C4.51499 10.2528 4.77366 10.7937 5.22046 11.1581C5.18519 11.311 5.16167 11.4638 5.16167 11.6167C5.16167 12.1811 5.40858 12.6984 5.79659 13.0511C5.60847 13.1099 5.42034 13.1805 5.24397 13.2628L4.42093 10.97ZM1.61082 15.2263V15.097C1.61082 14.9324 1.76367 14.8148 1.92828 14.8501L3.46855 15.1911C3.42152 15.2851 3.38624 15.3792 3.36273 15.485H1.86949C1.7284 15.485 1.61082 15.3674 1.61082 15.2263ZM0.646678 16.4491C0.646678 16.2728 0.787772 16.1317 0.964139 16.1317H1.86949H3.24515C3.23339 16.2375 3.23339 16.3433 3.23339 16.4491C3.23339 16.555 3.24515 16.6608 3.24515 16.7666H1.86949H0.964139C0.787772 16.7666 0.646678 16.6255 0.646678 16.4491ZM1.92828 18.06C1.77543 18.0952 1.61082 17.9659 1.61082 17.8131V17.6837C1.61082 17.5426 1.7284 17.425 1.86949 17.425H3.36273C3.38624 17.5309 3.42152 17.6249 3.45679 17.719L1.92828 18.06ZM19.3533 16.4491C19.3533 17.037 18.93 17.5309 18.3539 17.6132L7.28983 19.318C7.14874 19.3416 6.99589 19.3533 6.84303 19.3533H6.77249C5.17343 19.3533 3.86831 18.0482 3.86831 16.4491C3.86831 14.8501 5.17343 13.545 6.77249 13.545H6.84303C6.98413 13.545 7.13698 13.5567 7.28983 13.5802L18.3539 15.2851C18.93 15.3674 19.3533 15.8613 19.3533 16.4491ZM19.3533 11.9459C19.3533 12.9336 18.9536 13.8977 18.2481 14.6149L17.6014 14.5209C17.8954 13.8977 18.0482 13.2275 18.0482 12.5338V11.3463C18.0482 10.2058 17.6132 9.10053 16.8607 8.26573C16.99 8.14815 17.1664 8.06584 17.3545 8.06584C17.5073 8.06584 17.6602 8.11287 17.7778 8.20694C18.7537 8.92416 19.3416 10.0764 19.3416 11.2757L19.3533 11.9459Z" fill="#961914"/>
<path d="M6.45502 14.8384H7.1017V18.06H6.45502V14.8384Z" fill="#961914"/>
<path d="M9.02997 14.8384H9.67665V18.06H9.02997V14.8384Z" fill="#961914"/>
<path d="M11.6167 14.8384H12.2634V18.06H11.6167V14.8384Z" fill="#961914"/>
<path d="M14.1917 15.485H14.8383V17.425H14.1917V15.485Z" fill="#961914"/>
<path d="M16.7666 15.8025H17.4133V17.0958H16.7666V15.8025Z" fill="#961914"/>
</svg>

<svg width="20" height="20" fill="none" xmlns="http://www.w3.org/2000/svg"><path d="M20 11.276c0-1.4-.682-2.752-1.823-3.586a1.346 1.346 0 00-.81-.27c-.365 0-.706.14-.953.387-.047-.035-.094-.082-.141-.117a1.168 1.168 0 00-.612-.247l.142-1.564V5.76c0-.693-.565-1.246-1.247-1.246h-.082c-.694 0-1.247.564-1.247 1.246v.118l.142 1.575c-.2.036-.4.118-.565.247-.059.047-.106.094-.164.141-.024-.035-.06-.058-.094-.082a1.77 1.77 0 00.035-.34c0-.412-.13-.8-.365-1.13a1.929 1.929 0 00-1.681-3.057 1.937 1.937 0 00-1.282-1.21 1.93 1.93 0 00-1.622-.73A1.93 1.93 0 005.808 0a1.94 1.94 0 00-1.681.964 1.956 1.956 0 00-1.799 1.458 2.595 2.595 0 00-1.681 2.41c0 .859.423 1.658 1.128 2.129a1.908 1.908 0 00.54 2.257 2.043 2.043 0 00-.058.459c0 .987.741 1.81 1.705 1.916l.718 1.999a3.66 3.66 0 00-.918.988l-1.693-.377a.906.906 0 00-1.105.882v.13c0 .094.012.176.047.258H.964A.986.986 0 000 16.45c0 .53.435.964.964.964h.047a.917.917 0 00-.047.259v.13c0 .493.4.905.905.905.071 0 .13-.012.2-.024l1.693-.376A3.542 3.542 0 006.772 20h.071c.176 0 .365-.012.54-.047l11.065-1.705A1.824 1.824 0 0020 16.438c0-.73-.423-1.353-1.046-1.647.67-.8 1.046-1.81 1.046-2.857v-.658zm-4.115-3.07a3.966 3.966 0 011.54 3.14v1.188a4.02 4.02 0 01-.47 1.881l-2.587-.4a6.443 6.443 0 01-.165-1.422v-1.317c0-.33.036-.647.083-.976.082.012.153.012.235.012.917 0 1.61-.412 1.61-.965 0-.305-.211-.576-.575-.752l.047-.517a.758.758 0 01.282.129zm-1.411-3.044h.082c.33 0 .6.27.6.6v.058l-.294 3.222.247.082c.282.094.376.212.376.235 0 .083-.341.318-.964.318s-.964-.247-.964-.318c0-.023.094-.14.376-.235l.247-.082-.306-3.222v-.059c0-.329.27-.6.6-.6zm-1.047 2.927l.047.506c-.364.176-.576.447-.576.752 0 .353.294.647.741.824a7.01 7.01 0 00-.094 1.105v1.305c0 .447.047.882.13 1.317l-1.905-.294a3.79 3.79 0 01-.165-1.094v-1.164c0-1.223.588-2.398 1.575-3.14a.787.787 0 01.247-.117zm-3.48 5.244a3.737 3.737 0 01-.27-1.387v-.67c0-1.2.588-2.352 1.563-3.07a.71.71 0 01.929.07 4.551 4.551 0 00-1.199 3.07v1.188c0 .329.035.658.106.987l-1.129-.188zm.024-9.688l.058.33.33-.071c.105-.024.2-.036.282-.036a1.29 1.29 0 011.293 1.294c0 .34-.13.658-.364.905l-.224.223.224.224a1.3 1.3 0 01.364.905v.024c-.094-.012-.176-.024-.27-.024-.294 0-.576.094-.812.27-.587.424-1.046 1-1.363 1.635a24.11 24.11 0 00-.377-1.094c.294-1.575 1.4-2.48 1.411-2.492l-.2-.259-.2-.247c-.047.035-.917.753-1.41 2.034-.67-1.54-1.306-2.54-1.34-2.598l-.553.34c.011.013.505.789 1.07 2.023-.953-.364-2.058-.259-2.117-.259l.059.647c.482-.047 1.858-.023 2.504.635.224.553.447 1.164.647 1.823-.976-.518-2.152-.518-2.21-.518v.635c.011 0 1.446.012 2.304.682-.024.2-.047.4-.047.6v.682c0 .435.07.858.188 1.27l-1.834-.283-.282-.035a1.3 1.3 0 01-1.294-1.305c0-.153.036-.306.094-.459l.094-.247-.235-.129a1.282 1.282 0 01-.6-1.093c0-.259.071-.506.212-.718l.2-.305-.317-.153a1.909 1.909 0 01-1.058-1.729 1.94 1.94 0 011.399-1.857l.2-.059.035-.212a1.28 1.28 0 011.27-1.093h.035c.023 0 .047.012.07.012l.236.023.082-.223a1.281 1.281 0 012.446.282zM4.42 10.97h-.223a1.29 1.29 0 01-1.294-1.293c0-.153.035-.306.094-.459l.094-.247-.235-.14a1.282 1.282 0 01-.6-1.094c0-.26.071-.506.212-.718l.2-.305-.317-.153a1.909 1.909 0 01-1.059-1.729 1.94 1.94 0 011.4-1.857l.2-.06.035-.21a1.3 1.3 0 011.27-1.106h.035c.023 0 .047 0 .07.012l.236.023.094-.211A1.26 1.26 0 015.808.647c.624 0 1.153.446 1.27 1.07l.059.329.33-.07c.105-.024.187-.036.281-.036.153 0 .294.035.424.082-.482.13-.894.447-1.14.882-.86.024-1.588.635-1.8 1.458a2.571 2.571 0 00-.552 4.539 1.908 1.908 0 00.54 2.257 2.043 2.043 0 00-.058.459c0 .564.247 1.081.635 1.434a4.47 4.47 0 00-.553.212l-.823-2.293zm-2.81 4.256v-.129c0-.165.153-.282.317-.247l1.54.341a1.25 1.25 0 00-.105.294H1.869a.261.261 0 01-.258-.259zM.647 16.45c0-.176.14-.317.317-.317h2.281c-.012.105-.012.211-.012.317 0 .106.012.212.012.318H.964a.316.316 0 01-.317-.318zm1.281 1.611c-.153.035-.317-.094-.317-.247v-.13a.26.26 0 01.258-.258h1.494c.023.106.059.2.094.294l-1.529.341zm17.425-1.61c0 .587-.423 1.08-1 1.163L7.29 19.318a2.742 2.742 0 01-.447.035h-.07a2.91 2.91 0 01-2.905-2.904 2.91 2.91 0 012.904-2.904h.071c.141 0 .294.012.447.035l11.064 1.705c.576.082 1 .576 1 1.164zm0-4.504c0 .988-.4 1.952-1.105 2.669l-.647-.094a4.63 4.63 0 00.447-1.987v-1.188c0-1.14-.435-2.245-1.187-3.08a.742.742 0 01.494-.2.68.68 0 01.423.14 3.837 3.837 0 011.564 3.07l.011.67z" fill="#961914"/><path d="M6.455 14.838h.647v3.222h-.647v-3.222zm2.575 0h.647v3.222H9.03v-3.222zm2.587 0h.646v3.222h-.646v-3.222zm2.575.647h.646v1.94h-.646v-1.94zm2.575.318h.646v1.293h-.646v-1.293z" fill="#961914"/></svg>
